X: 305760
M: 2/4
L: 1/16
K: C
(ge) |\
c2c2 BcdB | cBcd c2(af) | d2d2 dedc | BcdB .G2FE |\
EF |\
.C2.c2.G2.e2 | c2g2g2 (fe) | d2ed cBAB | (cB)(cd) "^D.C"c2 :|


